X:17
% %NRChange 2008-02-24
T:Fire Skilling
C:etter Per Kronen
O:Norway
L:1/16
M:2/4
Q:1/8=180
R:Reinlender=Stabberinglender
K:A
% %staffsep 0.62cm
% %rightmargin 11.5cm
"Intro"|\
"A"Aced cBAc| "E"BAGB "A"A4
% %rightmargin 2.78cm
% %staves 1 2
%P:A
|: "A"efed c2cd | "B7"B2B^d "E"e4 | efed c2cd | "E"B2BG "A"A4 :|
%P:B
|: "A"Aced c2A2 | Aced c2A2 | Aced cBAc |[1 "E"BAGB "A"A2E2 :| [2 "E"BAGB "A"A4 |
K:D
%P:A
|: "D"ABAG F2FG | "E7"E2E^G "A"A4 | ABAG F2FG | "A"E2EC "D"D4 :|
%P:B
|: "D"DFAG F2D2 | DFAG F2D2 | DFAG FEDF |[1 "A"EDCE "D"D2A,2 :| [2 "A"EDCE "D"D4 |

